assets/features/channel/east-asia/kakao.svg

<svg width="80" height="80" viewBox="0 0 80 80" fill="none" xmlns="http://www.w3.org/2000/svg">
<rect width="80" height="80" rx="8" fill="#FAE100"/>
<path d="M22.9394 44.9681C22.9356 44.9081 22.9338 44.8387 22.9338 44.7693C22.9338 43.764 23.3952 42.8657 24.1173 42.2768L24.1229 42.273C24.9838 41.6841 26.0492 41.3315 27.1952 41.3315C27.3246 41.3315 27.454 41.3353 27.5815 41.3446H27.5647H29.8248V40.5982C29.8248 38.794 29.0289 37.8919 27.4371 37.8919C26.8632 37.8956 26.3099 37.9744 25.7828 38.1151L25.8278 38.1038C25.2314 38.2539 24.7156 38.4358 24.2242 38.6608L24.2823 38.6365L23.7065 37.2505C24.2486 36.941 24.8769 36.6822 25.5371 36.5059L25.5934 36.4928C26.1842 36.3278 26.8613 36.2302 27.5609 36.2265H27.5628C30.3212 36.2265 31.6998 37.6975 31.6985 40.6395V48.1001H30.2487L30.0142 46.821C29.4797 47.258 28.8626 47.6256 28.1967 47.8919L28.1498 47.9088C27.5928 48.1414 26.9457 48.282 26.2667 48.2933H26.263C26.1804 48.3008 26.0848 48.3064 25.9891 48.3064C24.2973 48.3064 22.9244 46.9354 22.9244 45.2419C22.9244 45.1462 22.9281 45.0506 22.9375 44.9568V44.9681H22.9394ZM26.6212 46.716C26.9194 46.7141 27.2083 46.6748 27.484 46.6035L27.4596 46.6091C27.8047 46.5247 28.0936 46.4291 28.3749 46.3165L28.3299 46.3334C28.645 46.2096 28.9132 46.0709 29.1664 45.9058L29.1477 45.9171C29.4028 45.7539 29.626 45.5814 29.8304 45.3919L29.8267 45.3957V42.6669H27.7879C27.6978 42.6594 27.5947 42.6556 27.4896 42.6556C26.7656 42.6556 26.0885 42.8582 25.5109 43.2108L25.5277 43.2014C25.0888 43.5652 24.8112 44.111 24.8112 44.7205C24.8112 44.7786 24.8131 44.8349 24.8187 44.8931V44.8856C24.8075 44.9568 24.8 45.0412 24.8 45.1256C24.8 46.0127 25.5202 46.7329 26.4074 46.7329C26.4824 46.7329 26.5574 46.7273 26.6306 46.7179L26.6212 46.716ZM37.1528 48.102H35.1909V31.6259L37.1528 31.2002V48.102ZM42.397 36.144L43.9332 37.2524L40.1613 41.9842L44.5296 47.228L43.016 48.4002L37.8581 42.0892L42.397 36.144ZM46.2646 44.9681C46.2608 44.9081 46.2589 44.8405 46.2589 44.7693C46.2589 43.764 46.7204 42.8657 47.4425 42.2749L47.4481 42.2711C48.3109 41.6822 49.3744 41.3296 50.5222 41.3296C50.6516 41.3296 50.7811 41.3334 50.9086 41.3428H50.8917H53.1519V40.5963C53.1519 38.7921 52.356 37.89 50.7642 37.89C50.1902 37.8938 49.6351 37.9725 49.108 38.1132L49.153 38.102C48.5566 38.252 48.0427 38.4339 47.5513 38.659L47.6075 38.6365L47.0317 37.2505C47.5738 36.9429 48.2002 36.6841 48.8623 36.5059L48.9186 36.4928C49.5094 36.3278 50.1884 36.2302 50.888 36.2265C53.6439 36.2265 55.0243 37.6975 55.0256 40.6395V48.1001H53.5757L53.3413 46.821C52.8067 47.258 52.1897 47.6256 51.5219 47.8919L51.475 47.9088C50.918 48.1414 50.2709 48.282 49.5938 48.2933H49.59C49.5075 48.3008 49.4119 48.3064 49.3143 48.3064C47.6225 48.3064 46.2514 46.9354 46.2514 45.2438C46.2514 45.1462 46.2552 45.0506 46.2646 44.9568V44.9681ZM49.9464 46.716C50.2446 46.7141 50.5335 46.6748 50.8092 46.6035L50.7848 46.6091C51.1299 46.5247 51.4188 46.4291 51.7001 46.3165L51.6551 46.3334C51.9702 46.2096 52.2384 46.069 52.4916 45.9058L52.4729 45.9171C52.728 45.7539 52.9493 45.5814 53.1556 45.3919L53.1519 45.3957V42.6669H51.1149C51.0249 42.6594 50.9199 42.6556 50.8148 42.6556C50.0908 42.6556 49.4137 42.8582 48.8379 43.2108L48.8548 43.2014C48.4159 43.5652 48.1364 44.1091 48.1364 44.7186C48.1364 44.7768 48.1383 44.8349 48.1439 44.8912V44.8837C48.1327 44.9549 48.1252 45.0393 48.1252 45.1237C48.1252 46.0108 48.8454 46.731 49.7326 46.731C49.8076 46.731 49.8826 46.7254 49.9558 46.716H49.9464ZM62.9163 36.2509C62.9895 36.2471 63.0758 36.2452 63.162 36.2452C64.5762 36.2452 65.8479 36.8548 66.7276 37.8244L66.7313 37.8281C67.6054 38.9422 68.1324 40.3619 68.1324 41.9073C68.1324 42.063 68.1268 42.2167 68.1174 42.3687L68.1193 42.348C68.1287 42.4774 68.1343 42.6275 68.1343 42.7813C68.1343 44.306 67.611 45.707 66.7332 46.8173L66.7445 46.8042C65.7598 47.7663 64.4112 48.3589 62.9238 48.3589C61.4365 48.3589 60.0879 47.7663 59.1013 46.8023L59.1032 46.8042C58.231 45.7089 57.7021 44.306 57.7021 42.7794C57.7021 42.6275 57.7077 42.4774 57.7171 42.3293L57.7152 42.3499C57.7059 42.2186 57.7002 42.0648 57.7002 41.911C57.7002 40.3657 58.231 38.9422 59.1219 37.8169L59.1107 37.83C59.996 36.8566 61.2695 36.2471 62.6837 36.2471C62.7663 36.2471 62.8469 36.249 62.9276 36.2527H62.9163V36.2509ZM62.9163 37.8281C62.8769 37.8263 62.83 37.8244 62.7832 37.8244C61.8679 37.8244 61.0576 38.2764 60.5662 38.9703L60.5605 38.9797C60.0372 39.8311 59.7259 40.8627 59.7259 41.9673C59.7259 42.1005 59.7296 42.2336 59.739 42.3649L59.7371 42.348C59.7296 42.4624 59.724 42.5956 59.724 42.7306C59.724 43.8165 60.0354 44.8293 60.5718 45.6864L60.5587 45.6639C61.1251 46.3503 61.9748 46.7835 62.9257 46.7835C63.8766 46.7835 64.7263 46.3503 65.2871 45.6695L65.2909 45.6639C65.8142 44.8293 66.1236 43.8165 66.1236 42.7306C66.1236 42.5956 66.118 42.4624 66.1086 42.3312L66.1105 42.348C66.118 42.2336 66.1236 42.1023 66.1236 41.9692C66.1236 40.8645 65.8142 39.833 65.2758 38.9553L65.2909 38.9797C64.7882 38.2764 63.9742 37.8244 63.0551 37.8244C63.0045 37.8244 62.9557 37.8263 62.9069 37.8281H62.9163ZM13.8276 48.102H11.8657V31.6259L13.8276 31.2002V48.102ZM19.0719 36.144L20.608 37.2524L16.8342 41.9842L21.2044 47.228L19.6908 48.4002L14.5329 42.0892L19.0719 36.144Z" fill="black"/>
</svg>

<svg xmlns="http://www.w3.org/2000/svg" width="80" height="80" fill="none" viewBox="0 0 80 80"><rect width="80" height="80" fill="#fae100" rx="8"/><path fill="#000" d="M22.94 44.968a3.21 3.21 0 0 1 1.178-2.691l.005-.004a5.44 5.44 0 0 1 3.458-.928h-.016 2.26v-.747q0-2.706-2.388-2.706a6.6 6.6 0 0 0-1.654.223l.045-.011a9 9 0 0 0-1.604.557l.058-.025-.576-1.386a7.8 7.8 0 0 1 1.831-.744l.056-.013a7.6 7.6 0 0 1 1.968-.267h.002q4.137 0 4.136 4.413V48.1h-1.45l-.235-1.279a7 7 0 0 1-1.817 1.07l-.047.018a5.2 5.2 0 0 1-1.883.384h-.004a3.064 3.064 0 0 1-3.326-3.337v.012zm3.681 1.748q.448-.004.863-.113l-.024.006c.345-.084.634-.18.915-.293l-.045.017c.315-.123.583-.262.836-.427l-.018.011c.255-.163.478-.336.682-.525l-.003.004v-2.73h-2.04a3.8 3.8 0 0 0-2.277.544l.018-.009a1.97 1.97 0 0 0-.71 1.692v-.007a1.608 1.608 0 0 0 1.812 1.832zm10.532 1.386H35.19V31.626l1.962-.426zm5.244-11.958 1.536 1.108-3.772 4.732 4.369 5.244-1.514 1.172-5.158-6.31zm3.868 8.824a3.22 3.22 0 0 1 1.178-2.693l.005-.004a5.45 5.45 0 0 1 3.46-.928h-.016 2.26v-.747q0-2.706-2.388-2.706a6.6 6.6 0 0 0-1.656.223l.045-.011c-.596.15-1.11.332-1.602.557l.056-.023-.575-1.386a8 8 0 0 1 1.83-.744l.057-.013a7.6 7.6 0 0 1 1.969-.267q4.134 0 4.138 4.413V48.1h-1.45l-.235-1.279a7 7 0 0 1-1.82 1.07l-.046.018a5.1 5.1 0 0 1-1.881.384h-.004a3.063 3.063 0 0 1-3.325-3.337zm3.681 1.748q.449-.004.863-.113l-.024.006c.345-.084.634-.18.915-.293l-.045.017c.315-.123.583-.264.837-.427l-.02.011c.256-.163.477-.336.684-.525l-.004.004v-2.73h-2.037a3.77 3.77 0 0 0-2.277.544l.017-.009a1.97 1.97 0 0 0-.711 1.69v-.007a1.608 1.608 0 0 0 1.812 1.832zm12.97-10.465a4.8 4.8 0 0 1 3.811 1.573l.004.004a6.6 6.6 0 0 1 1.386 4.54l.002-.02a6.48 6.48 0 0 1-1.386 4.47l.011-.014a5.45 5.45 0 0 1-3.82 1.555 5.45 5.45 0 0 1-3.823-1.557l.002.002a6.45 6.45 0 0 1-1.386-4.475l-.002.02a6.57 6.57 0 0 1 1.407-4.533l-.011.014a4.82 4.82 0 0 1 3.817-1.577h-.012zm0 1.577-.133-.004c-.915 0-1.725.452-2.217 1.146l-.006.01a5.7 5.7 0 0 0-.821 3.385l-.002-.017a5.55 5.55 0 0 0 .835 3.338l-.013-.022a3.058 3.058 0 0 0 4.728.005l.004-.005a5.52 5.52 0 0 0 .818-3.333l.002.017a5.74 5.74 0 0 0-.835-3.393l.015.025a2.74 2.74 0 0 0-2.236-1.156q-.075 0-.148.004zM13.828 48.102h-1.962V31.626l1.962-.426zm5.244-11.958 1.536 1.108-3.774 4.732 4.37 5.244-1.513 1.172-5.158-6.31z"/></svg>
